X:94
T:Off She Goes - B music
I:abc2nwc
M:6/8
L:1/8
K:G
c|BdB GAB|cec ABc|BdB GAB|AFD D2c|
BdB GAB|cec ABc|BAG c2B|AGF G2


